packages/gestalt-icons-android/vr-theme/ic_vr_bell-fill_gestalt.svg

<svg width="24" height="24" viewBox="0 0 24 24" fill="none" xmlns="http://www.w3.org/2000/svg">
<path fill-rule="evenodd" clip-rule="evenodd" d="M20.5377 14.2396C20.7349 15.8166 22.0754 17 23.6647 17H24V19H16V20H15.9767C15.7787 21.6893 14.3424 23 12.6 23H11.4C9.65756 23 8.22125 21.6893 8.02328 20H8V19H0V17H0.335338C1.92459 17 3.26514 15.8166 3.46227 14.2396L4.26351 7.82963C4.75122 3.92794 8.06795 1 12 1C15.9321 1 19.2488 3.92794 19.7365 7.82963L20.5377 14.2396ZM10 19.6C10 20.3732 10.6268 21 11.4 21H12.6C13.3732 21 14 20.3732 14 19.6C14 19.2686 13.7314 19 13.4 19H10.6C10.2686 19 10 19.2686 10 19.6Z" fill="black"/>
</svg>

<svg xmlns="http://www.w3.org/2000/svg" width="24" height="24"><path d="M20.54 14.24A3.15 3.15 0 0 0 23.66 17H24v2h-8v1h-.02a3.4 3.4 0 0 1-3.38 3h-1.2a3.4 3.4 0 0 1-3.38-3H8v-1H0v-2h.34a3.15 3.15 0 0 0 3.12-2.76l.8-6.41a7.8 7.8 0 0 1 15.48 0zM10 19.6c0 .77.63 1.4 1.4 1.4h1.2c.77 0 1.4-.63 1.4-1.4a.6.6 0 0 0-.6-.6h-2.8a.6.6 0 0 0-.6.6"/></svg>
